resources/svg/settings-2-line.svg

<svg fill="currentColor" viewBox="0 0 24 24" xmlns="http://www.w3.org/2000/svg"><path d="M8.68735 4.00008L11.294 1.39348C11.6845 1.00295 12.3176 1.00295 12.7082 1.39348L15.3148 4.00008H19.0011C19.5533 4.00008 20.0011 4.4478 20.0011 5.00008V8.68637L22.6077 11.293C22.9982 11.6835 22.9982 12.3167 22.6077 12.7072L20.0011 15.3138V19.0001C20.0011 19.5524 19.5533 20.0001 19.0011 20.0001H15.3148L12.7082 22.6067C12.3176 22.9972 11.6845 22.9972 11.294 22.6067L8.68735 20.0001H5.00106C4.44877 20.0001 4.00106 19.5524 4.00106 19.0001V15.3138L1.39446 12.7072C1.00393 12.3167 1.00393 11.6835 1.39446 11.293L4.00106 8.68637V5.00008C4.00106 4.4478 4.44877 4.00008 5.00106 4.00008H8.68735ZM6.00106 6.00008V9.5148L3.51578 12.0001L6.00106 14.4854V18.0001H9.51578L12.0011 20.4854L14.4863 18.0001H18.0011V14.4854L20.4863 12.0001L18.0011 9.5148V6.00008H14.4863L12.0011 3.5148L9.51578 6.00008H6.00106ZM12.0011 16.0001C9.79192 16.0001 8.00106 14.2092 8.00106 12.0001C8.00106 9.79094 9.79192 8.00008 12.0011 8.00008C14.2102 8.00008 16.0011 9.79094 16.0011 12.0001C16.0011 14.2092 14.2102 16.0001 12.0011 16.0001ZM12.0011 14.0001C13.1056 14.0001 14.0011 13.1047 14.0011 12.0001C14.0011 10.8955 13.1056 10.0001 12.0011 10.0001C10.8965 10.0001 10.0011 10.8955 10.0011 12.0001C10.0011 13.1047 10.8965 14.0001 12.0011 14.0001Z"/></svg>

<svg xmlns="http://www.w3.org/2000/svg" viewBox="0 0 24 24" fill="currentColor">
    <g>
        <path fill="none" d="M0 0h24v24H0z"/>
        <path d="M8.686 4l2.607-2.607a1 1 0 0 1 1.414 0L15.314 4H19a1 1 0 0 1 1 1v3.686l2.607 2.607a1 1 0 0 1 0 1.414L20 15.314V19a1 1 0 0 1-1 1h-3.686l-2.607 2.607a1 1 0 0 1-1.414 0L8.686 20H5a1 1 0 0 1-1-1v-3.686l-2.607-2.607a1 1 0 0 1 0-1.414L4 8.686V5a1 1 0 0 1 1-1h3.686zM6 6v3.515L3.515 12 6 14.485V18h3.515L12 20.485 14.485 18H18v-3.515L20.485 12 18 9.515V6h-3.515L12 3.515 9.515 6H6zm6 10a4 4 0 1 1 0-8 4 4 0 0 1 0 8zm0-2a2 2 0 1 0 0-4 2 2 0 0 0 0 4z"/>
    </g>
</svg>
